dist/img/svg/quotes.svg

<svg width="30" height="21" viewBox="0 0 30 21" fill="none" xmlns="http://www.w3.org/2000/svg">
<path d="M0.941141 14.5C0.941141 6.688 4.78514 0.859998 12.4731 0.859998V2.84399C9.12514 2.84399 7.14114 4.332 6.76914 8.67199C9.99314 8.67199 12.5971 11.276 12.4731 14.5C12.4731 17.724 9.86914 20.328 6.64514 20.328C3.42114 20.328 0.817141 17.724 0.941141 14.5ZM29.9571 2.84399C26.6091 2.84399 24.6251 4.332 24.2531 8.67199C27.4771 8.67199 29.9571 11.276 29.9571 14.5C29.9571 17.724 27.3531 20.328 24.1291 20.328C20.9051 20.328 18.3011 17.724 18.3011 14.5C18.3011 6.688 22.1451 0.859998 29.9571 0.859998V2.84399Z" fill="currentColor"/>
</svg>

<svg width="30" height="21" viewBox="0 0 30 21" fill="none" xmlns="http://www.w3.org/2000/svg"><path d="M.941 14.5C.941 6.688 4.785.86 12.473.86v1.984c-3.348 0-5.332 1.488-5.704 5.828 3.224 0 5.828 2.604 5.704 5.828a5.821 5.821 0 01-5.828 5.828c-3.224 0-5.828-2.604-5.704-5.828zM29.957 2.844c-3.348 0-5.332 1.488-5.704 5.828 3.224 0 5.704 2.604 5.704 5.828a5.821 5.821 0 01-5.828 5.828 5.821 5.821 0 01-5.828-5.828c0-7.812 3.844-13.64 11.656-13.64v1.984z" fill="currentColor"/></svg>
